chrome/tabbar/close-tab.svg

<svg xmlns="http://www.w3.org/2000/svg" width="16" height="16" viewBox="0 0 16 16">
   <path
   style="fill:context-fill;fill-opacity:context-fill-opacity"
   d="M 4.5253906 3.875 A 0.625 0.625 0 0 0 4.0585938 4.0585938 A 0.625 0.625 0 0 0 4.0585938 4.9414062 L 7.1171875 8 L 4.0585938 11.058594 A 0.625 0.625 0 0 0 4.0585938 11.941406 A 0.625 0.625 0 0 0 4.9414062 11.941406 L 8 8.8828125 L 11.058594 11.941406 A 0.625 0.625 0 0 0 11.941406 11.941406 A 0.625 0.625 0 0 0 11.941406 11.058594 L 8.8828125 8 L 11.941406 4.9414062 A 0.625 0.625 0 0 0 11.941406 4.0585938 A 0.625 0.625 0 0 0 11.525391 3.875 A 0.625 0.625 0 0 0 11.058594 4.0585938 L 8 7.1171875 L 4.9414062 4.0585938 A 0.625 0.625 0 0 0 4.5253906 3.875 z " />
</svg>

<svg xmlns="http://www.w3.org/2000/svg" width="16" height="16">
  <path style="fill:context-fill;fill-opacity:context-fill-opacity" d="M4.525 3.875a.625.625 0 0 0-.466.184.625.625 0 0 0 0 .882L7.117 8 4.06 11.059a.625.625 0 0 0 0 .882.625.625 0 0 0 .882 0L8 8.883l3.059 3.058a.625.625 0 0 0 .882 0 .625.625 0 0 0 0-.882L8.883 8l3.058-3.059a.625.625 0 0 0 0-.882.625.625 0 0 0-.416-.184.625.625 0 0 0-.466.184L8 7.117 4.941 4.06a.625.625 0 0 0-.416-.184z"/>
</svg>
